X: 13104
T: Firefly
R: jig
M: 6/8
K: Bminor
dBd cAc|dBd e>dc|dBd c>BA|B2A B3|
dBd edc|dBd c>BA|dBd cBA|B2A B>cd/e/||
z//fff afd|e/f/ed c>de|f>ed BBA|FcB A3|
f2f afa|bba f>ed|Bf/e/d cBA|B(FG A)>Bc||
dBd cAc|dBd e>dc|dAd cBA|B2A B>cd/e/||
z//fff a>fd|e/f/ed c>de|f>ed B/c/BA|FcB A3|
f2f afa|bba f>ed|Bf/e/d c>BA|B(F,/B,/D/FB2 d//)||

